X: 36
T:Saratoga
% Nottingham Music Database
S:via PR
M:4/4
L:1/4
K:A
c/2d/2|"A"e/2^d/2e/2f/2 e/2d/2c/2B/2|A/2a/2g/2a/2 ec|"D"df/2e/2 d/2c/2B/2A/2|\
"E7"G/2A/2B/2G/2 Ec/2d/2|
"A"e/2^d/2e/2f/2 e/2d/2c/2B/2|"A"A/2a/2g/2a/2 ec|"D"d/2f/2e/2d/2 c/2B/2A/2G/2|\
"A"AA A::
G/2A/2|"E"B/2E/2E B/2E/2d/2E/2|"A"c/2E/2E c/2E/2e/2E/2|"E"B/2E/2E B/2E/2d/2E/2\
|"A"c/2A/2E/2C/2 A,c|
"E"B/2E/2E B/2E/2d/2E/2|"A"c/2E/2E c/2E/2e/2E/2|"D"d/2f/2e/2d/2 c/2B/2A/2G/2|\
"A"AA A:|


